src/assets/img/user-panel-icons/my-portfolio-icon.svg

<svg width="23" height="24" xmlns="http://www.w3.org/2000/svg">

 <g>
  <title>background</title>
  <rect fill="none" id="canvas_background" height="26" width="25" y="-1" x="-1"/>
 </g>
 <g>
  <title>Layer 1</title>
  <path id="svg_2" fill="#FA544D" d="m21.6849,9.46294l0,3.86696c0,0.2072 -0.0823,0.4058 -0.2288,0.5523c-0.1464,0.1465 -0.3451,0.2287 -0.5522,0.2287c-0.2072,0 -0.4058,-0.0822 -0.5523,-0.2287c-0.1464,-0.1465 -0.2287,-0.3451 -0.2287,-0.5523l0,-1.11l-3.932,4c-0.0473,0.0478 -0.1037,0.0857 -0.1657,0.1115c-0.062,0.0259 -0.1286,0.0392 -0.1958,0.0392c-0.0672,0 -0.1338,-0.0133 -0.1958,-0.0392c-0.0621,-0.0258 -0.1184,-0.0637 -0.1657,-0.1115l-1.089,-1.089c-0.0473,-0.0477 -0.1037,-0.0856 -0.1657,-0.1115c-0.062,-0.0258 -0.1286,-0.0391 -0.1958,-0.0391c-0.0672,0 -0.1338,0.0133 -0.1958,0.0391c-0.0621,0.0259 -0.1184,0.0638 -0.1657,0.1115l-3.186,3.25c-0.0473,0.0478 -0.1037,0.0857 -0.1657,0.1115c-0.062,0.0259 -0.1286,0.0392 -0.1958,0.0392c-0.0672,0 -0.1338,-0.0133 -0.19585,-0.0392c-0.06204,-0.0258 -0.11835,-0.0637 -0.16567,-0.1115l-1.362,-1.362c-0.04733,-0.0477 -0.10364,-0.0856 -0.16568,-0.1115c-0.06205,-0.0258 -0.1286,-0.0391 -0.19582,-0.0391c-0.06722,0 -0.13378,0.0133 -0.19583,0.0391c-0.06204,0.0259 -0.11835,0.0638 -0.16567,0.1115l-4.322,4.423c-0.14483,0.1466 -0.3417,0.23 -0.54774,0.2321c-0.20604,0.002 -0.40454,-0.0774 -0.55226,-0.2211c-0.14657,-0.1448 -0.22997,-0.3417 -0.23203,-0.5477c-0.00206,-0.206 0.07738,-0.4045 0.22103,-0.5523l5.426,-5.536c0.04732,-0.0477 0.10363,-0.0856 0.16567,-0.1115c0.06205,-0.0258 0.12861,-0.0391 0.19583,-0.0391c0.06722,0 0.13377,0.0133 0.19582,0.0391c0.06204,0.0259 0.11835,0.0638 0.16568,0.1115l1.363,1.363c0.04732,0.0478 0.10363,0.0857 0.16567,0.1115c0.06205,0.0259 0.12865,0.0392 0.19585,0.0392c0.0672,0 0.1337,-0.0133 0.1958,-0.0392c0.062,-0.0258 0.1184,-0.0637 0.1657,-0.1115l3.186,-3.25c0.0473,-0.0477 0.1036,-0.0856 0.1657,-0.1115c0.062,-0.0258 0.1286,-0.0391 0.1958,-0.0391c0.0672,0 0.1338,0.0133 0.1958,0.0391c0.062,0.0259 0.1184,0.0638 0.1657,0.1115l1.086,1.07c0.0473,0.0478 0.1036,0.0857 0.1657,0.1115c0.062,0.0259 0.1286,0.0392 0.1958,0.0392c0.0672,0 0.1338,-0.0133 0.1958,-0.0392c0.062,-0.0258 0.1184,-0.0637 0.1657,-0.1115l2.924,-2.977l-1.326,0c-0.1026,0 -0.2041,-0.0202 -0.2989,-0.0594c-0.0948,-0.0393 -0.1809,-0.0968 -0.2534,-0.1693c-0.0725,-0.0725 -0.13,-0.1586 -0.1693,-0.2534c-0.0392,-0.0947 -0.0594,-0.1963 -0.0594,-0.2989c0,-0.2071 0.0823,-0.40575 0.2287,-0.55221c0.1465,-0.14647 0.3451,-0.22875 0.5523,-0.22875l3.905,0.002z"/>
  <path id="svg_3" fill="#8186AF" d="m3.64114,11.455l0,3.312c-0.00011,0.1552 0.04603,0.3069 0.13253,0.4358c0.0865,0.1289 0.20943,0.2291 0.35312,0.2878c0.14368,0.0587 0.3016,0.0732 0.45359,0.0418c0.15199,-0.0315 0.29117,-0.1075 0.39976,-0.2184c0.14345,-0.1459 0.22388,-0.3424 0.224,-0.547l0,-4.738l6.48296,-5.915l3.926,3.586c0.1444,0.12971 0.3319,0.20101 0.526,0.2c0.1575,-0.00007 0.3113,-0.04775 0.4412,-0.13679c0.1299,-0.08903 0.2299,-0.21526 0.2868,-0.36212c0.0569,-0.14686 0.068,-0.30749 0.032,-0.4608c-0.0361,-0.15332 -0.1176,-0.29215 -0.234,-0.39829l-4.978,-4.542l-9.43196,8.6c-0.15207,0.1394 -0.24279,0.3334 -0.25235,0.5395c-0.00955,0.2061 0.06283,0.4076 0.20135,0.5605c0.13944,0.1521 0.33338,0.2428 0.53949,0.2524c0.2061,0.0095 0.40761,-0.0629 0.56051,-0.2014l0.337,-0.296z"/>
  <path id="svg_4" fill="#8186AF" d="m18.17,19.6571c0,0.2071 -0.0823,0.4058 -0.2288,0.5523c-0.1465,0.1464 -0.3451,0.2287 -0.5522,0.2287l-10.69505,0c-0.05592,0.0003 -0.11122,0.0117 -0.16272,0.0335c-0.05149,0.0218 -0.09815,0.0536 -0.13728,0.0935l-0.709,0.722c-0.05764,0.0585 -0.09681,0.1327 -0.11264,0.2133c-0.01583,0.0806 -0.00763,0.164 0.02359,0.24c0.03122,0.076 0.08408,0.1411 0.152,0.1873c0.06793,0.0461 0.14793,0.0713 0.23005,0.0724l11.41105,0c0.6214,0 1.2173,-0.2468 1.6567,-0.6862c0.4394,-0.4394 0.6863,-1.0354 0.6863,-1.6568l0,-2.9c-0.0001,-0.155 -0.0464,-0.3065 -0.1328,-0.4351c-0.0865,-0.1287 -0.2092,-0.2287 -0.3527,-0.2874c-0.1435,-0.0586 -0.3012,-0.0733 -0.453,-0.042c-0.1518,0.0312 -0.2909,0.107 -0.3995,0.2175c-0.1435,0.1459 -0.2239,0.3424 -0.224,0.547l0,2.9z"/>
 </g>
</svg>

<svg width="139" height="24" viewBox="0 0 139 24" fill="none" xmlns="http://www.w3.org/2000/svg">
<path d="M64.92 7.2L60.706 14.466L56.45 7.2H55.596V17H56.59V9.202L60.44 15.754H60.93L64.78 9.16V17H65.774V7.2H64.92ZM73.9651 9.636L71.1931 15.894L68.4211 9.636H67.3851L70.6751 16.986L70.3531 17.7C69.9331 18.624 69.4851 18.932 68.8271 18.932C68.2951 18.932 67.8471 18.736 67.4831 18.372L67.0211 19.114C67.4691 19.562 68.1271 19.786 68.8131 19.786C69.8631 19.786 70.6471 19.324 71.2631 17.882L74.9451 9.636H73.9651ZM83.803 9.58C82.585 9.58 81.563 10.112 80.961 11.092V9.636H80.009V19.716H81.003V15.614C81.619 16.566 82.627 17.07 83.803 17.07C85.903 17.07 87.471 15.558 87.471 13.318C87.471 11.092 85.903 9.58 83.803 9.58ZM83.733 16.188C82.165 16.188 80.989 15.04 80.989 13.318C80.989 11.61 82.165 10.448 83.733 10.448C85.287 10.448 86.477 11.61 86.477 13.318C86.477 15.04 85.287 16.188 83.733 16.188ZM92.5073 17.07C94.6633 17.07 96.2453 15.502 96.2453 13.318C96.2453 11.134 94.6633 9.58 92.5073 9.58C90.3513 9.58 88.7553 11.134 88.7553 13.318C88.7553 15.502 90.3513 17.07 92.5073 17.07ZM92.5073 16.188C90.9393 16.188 89.7633 15.04 89.7633 13.318C89.7633 11.596 90.9393 10.448 92.5073 10.448C94.0753 10.448 95.2373 11.596 95.2373 13.318C95.2373 15.04 94.0753 16.188 92.5073 16.188ZM99.2267 11.078V9.636H98.2747V17H99.2687V13.248C99.2687 11.512 100.207 10.532 101.747 10.532C101.817 10.532 101.901 10.546 101.985 10.546V9.58C100.627 9.58 99.6887 10.098 99.2267 11.078ZM107.627 15.838C107.347 16.09 106.941 16.216 106.535 16.216C105.709 16.216 105.261 15.74 105.261 14.872V10.476H107.501V9.636H105.261V8.026H104.267V9.636H102.951V10.476H104.267V14.928C104.267 16.286 105.037 17.07 106.423 17.07C106.997 17.07 107.585 16.902 107.977 16.552L107.627 15.838ZM112.222 7.382C112.642 7.382 113.034 7.508 113.314 7.746L113.65 7.004C113.286 6.696 112.726 6.542 112.18 6.542C110.738 6.542 109.954 7.41 109.954 8.726V9.636H108.638V10.476H109.954V17H110.948V10.476H113.188V9.636H110.92V8.768C110.92 7.858 111.368 7.382 112.222 7.382ZM117.417 17.07C119.573 17.07 121.155 15.502 121.155 13.318C121.155 11.134 119.573 9.58 117.417 9.58C115.261 9.58 113.665 11.134 113.665 13.318C113.665 15.502 115.261 17.07 117.417 17.07ZM117.417 16.188C115.849 16.188 114.673 15.04 114.673 13.318C114.673 11.596 115.849 10.448 117.417 10.448C118.985 10.448 120.147 11.596 120.147 13.318C120.147 15.04 118.985 16.188 117.417 16.188ZM123.185 17H124.179V6.612H123.185V17ZM127.449 8.026C127.869 8.026 128.177 7.704 128.177 7.298C128.177 6.92 127.855 6.612 127.449 6.612C127.043 6.612 126.721 6.934 126.721 7.312C126.721 7.704 127.043 8.026 127.449 8.026ZM126.945 17H127.939V9.636H126.945V17ZM133.714 17.07C135.87 17.07 137.452 15.502 137.452 13.318C137.452 11.134 135.87 9.58 133.714 9.58C131.558 9.58 129.962 11.134 129.962 13.318C129.962 15.502 131.558 17.07 133.714 17.07ZM133.714 16.188C132.146 16.188 130.97 15.04 130.97 13.318C130.97 11.596 132.146 10.448 133.714 10.448C135.282 10.448 136.444 11.596 136.444 13.318C136.444 15.04 135.282 16.188 133.714 16.188Z" fill="#8186AF"/>
<path d="M21.6849 9.46294V13.3299C21.6849 13.5371 21.6026 13.7357 21.4561 13.8822C21.3097 14.0287 21.111 14.1109 20.9039 14.1109C20.6967 14.1109 20.4981 14.0287 20.3516 13.8822C20.2052 13.7357 20.1229 13.5371 20.1229 13.3299V12.2199L16.1909 16.2199C16.1436 16.2677 16.0872 16.3056 16.0252 16.3314C15.9632 16.3573 15.8966 16.3706 15.8294 16.3706C15.7622 16.3706 15.6956 16.3573 15.6336 16.3314C15.5715 16.3056 15.5152 16.2677 15.4679 16.2199L14.3789 15.1309C14.3316 15.0832 14.2752 15.0453 14.2132 15.0194C14.1512 14.9936 14.0846 14.9803 14.0174 14.9803C13.9502 14.9803 13.8836 14.9936 13.8216 15.0194C13.7595 15.0453 13.7032 15.0832 13.6559 15.1309L10.4699 18.3809C10.4226 18.4287 10.3662 18.4666 10.3042 18.4924C10.2422 18.5183 10.1756 18.5316 10.1084 18.5316C10.0412 18.5316 9.9746 18.5183 9.91255 18.4924C9.85051 18.4666 9.7942 18.4287 9.74688 18.3809L8.38488 17.0189C8.33755 16.9712 8.28124 16.9333 8.2192 16.9074C8.15715 16.8816 8.0906 16.8683 8.02338 16.8683C7.95616 16.8683 7.8896 16.8816 7.82755 16.9074C7.76551 16.9333 7.7092 16.9712 7.66188 17.0189L3.33988 21.4419C3.19505 21.5885 2.99818 21.6719 2.79214 21.674C2.5861 21.676 2.3876 21.5966 2.23988 21.4529C2.09331 21.3081 2.00991 21.1112 2.00785 20.9052C2.00579 20.6992 2.08523 20.5007 2.22888 20.3529L7.65488 14.8169C7.7022 14.7692 7.75851 14.7313 7.82055 14.7054C7.8826 14.6796 7.94916 14.6663 8.01638 14.6663C8.0836 14.6663 8.15015 14.6796 8.2122 14.7054C8.27424 14.7313 8.33055 14.7692 8.37788 14.8169L9.74088 16.1799C9.7882 16.2277 9.84451 16.2656 9.90655 16.2914C9.9686 16.3173 10.0352 16.3306 10.1024 16.3306C10.1696 16.3306 10.2361 16.3173 10.2982 16.2914C10.3602 16.2656 10.4166 16.2277 10.4639 16.1799L13.6499 12.9299C13.6972 12.8822 13.7535 12.8443 13.8156 12.8184C13.8776 12.7926 13.9442 12.7793 14.0114 12.7793C14.0786 12.7793 14.1452 12.7926 14.2072 12.8184C14.2692 12.8443 14.3256 12.8822 14.3729 12.9299L15.4589 13.9999C15.5062 14.0477 15.5625 14.0856 15.6246 14.1114C15.6866 14.1373 15.7532 14.1506 15.8204 14.1506C15.8876 14.1506 15.9542 14.1373 16.0162 14.1114C16.0782 14.0856 16.1346 14.0477 16.1819 13.9999L19.1059 11.0229H17.7799C17.6773 11.0229 17.5758 11.0027 17.481 10.9635C17.3862 10.9242 17.3001 10.8667 17.2276 10.7942C17.1551 10.7217 17.0976 10.6356 17.0583 10.5408C17.0191 10.4461 16.9989 10.3445 16.9989 10.2419C16.9989 10.0348 17.0812 9.83615 17.2276 9.68969C17.3741 9.54322 17.5727 9.46094 17.7799 9.46094L21.6849 9.46294Z" fill="#FA544D"/>
<path d="M3.64114 11.455V14.767C3.64103 14.9222 3.68717 15.0739 3.77367 15.2028C3.86017 15.3317 3.9831 15.4319 4.12679 15.4906C4.27047 15.5493 4.42839 15.5638 4.58038 15.5324C4.73237 15.5009 4.87155 15.4249 4.98014 15.314C5.12359 15.1681 5.20402 14.9716 5.20414 14.767V10.029L11.6871 4.114L15.6131 7.7C15.7575 7.82971 15.945 7.90101 16.1391 7.9C16.2966 7.89993 16.4504 7.85225 16.5803 7.76321C16.7102 7.67418 16.8102 7.54795 16.8671 7.40109C16.924 7.25423 16.9351 7.0936 16.8991 6.94029C16.863 6.78697 16.7815 6.64814 16.6651 6.542L11.6871 2L2.25514 10.6C2.10307 10.7394 2.01235 10.9334 2.00279 11.1395C1.99324 11.3456 2.06562 11.5471 2.20414 11.7C2.34358 11.8521 2.53752 11.9428 2.74363 11.9524C2.94973 11.9619 3.15124 11.8895 3.30414 11.751L3.64114 11.455Z" fill="#8186AF"/>
<path d="M18.17 19.6571C18.17 19.8642 18.0877 20.0629 17.9412 20.2094C17.7947 20.3558 17.5961 20.4381 17.389 20.4381H6.69395C6.63803 20.4384 6.58273 20.4498 6.53123 20.4716C6.47974 20.4934 6.43308 20.5252 6.39395 20.5651L5.68495 21.2871C5.62731 21.3456 5.58814 21.4198 5.57231 21.5004C5.55648 21.581 5.56468 21.6644 5.5959 21.7404C5.62712 21.8164 5.67998 21.8815 5.7479 21.9277C5.81583 21.9738 5.89583 21.999 5.97795 22.0001H17.389C18.0104 22.0001 18.6063 21.7533 19.0457 21.3139C19.4851 20.8745 19.732 20.2785 19.732 19.6571V16.7571C19.7319 16.6021 19.6856 16.4506 19.5992 16.322C19.5127 16.1933 19.39 16.0933 19.2465 16.0346C19.103 15.976 18.9453 15.9613 18.7935 15.9926C18.6417 16.0238 18.5026 16.0996 18.394 16.2101C18.2505 16.356 18.1701 16.5525 18.17 16.7571V19.6571Z" fill="#8186AF"/>
</svg>
